_icons/SVG/555-darmanitan.svg

<svg xmlns="http://www.w3.org/2000/svg" viewBox="0 0 32 32"><title>555-darmanitan</title><path d="M11.46955,25.03565c-.01977-.04187-.02917-.07092-.05041-.11456-.60169-1.53528-.47583-2.40345.01983-2.9325L9.517,19.35334c-1.68768,2.41412-2.08612,4.31543-.65387,5.48852l-.00647.002A6.5988,6.5988,0,0,0,11.46955,25.03565Z" style="fill:#962931"/><path d="M8.8567,24.84382c-.68787.1463-1.15173.4533-1.24182,1.02832.11889.81237,2.39392,1.13739,3.99359.6737.40423-.03851.32165-.53595-.13892-1.51019A6.5988,6.5988,0,0,1,8.8567,24.84382Z" style="fill:#ce692c"/><path d="M5.93067,24.9607l-.72284-1.19342L3.96089,25.27442,2.779,23.19257l-.94336,2.16858-.80237-2.16858-.75042,1.744c-.42524,4.2569-.09522,5.817.77362,5.45318a13.17009,13.17009,0,0,0,6.30084.35663c.64392.13037.95258-.78058.57458-3.82409A4.2581,4.2581,0,0,0,5.93067,24.9607Z" style="fill:#dd7731"/><path d="M1.83564,25.36115,2.779,23.19257l1.18189,2.08185,1.24694-1.50714.72284,1.19342a17.97141,17.97141,0,0,1,.37647-5.429L9.25941,15.233,8.76411,12.26,2.24525,15.72742C.98127,17.2323.32276,20.20356.30348,24.723c-.00769.07415-.01337.141-.02063.21362l.75042-1.744Z" style="fill:#a92f31"/><path d="M8.16145,14.96479c0,4.975,3.51532,9.00811,7.85168,9.00811V5.95667C11.67677,5.95667,8.16145,9.98975,8.16145,14.96479Z" style="fill:#9c2c30"/><polygon points="14.567 9.422 12.688 8.503 11.016 11.26 12.688 13.934 14.693 12.43 16.013 13.734 16.013 10.851 14.567 9.422" style="fill:#d6712d"/><ellipse cx="13.25691" cy="11.21795" rx="1.6298" ry="1.227" transform="translate(-1.14712 20.91907) rotate(-74.19806)" style="fill:#f7f7f7"/><ellipse cx="13.20947" cy="11.38558" rx="0.86641" ry="0.65228" transform="translate(-1.34295 20.99541) rotate(-74.19806)" style="fill:#373f3f"/><path d="M14.66865,14.10267,12.33058,16.0246,10.2303,13.211c-.12232,4.5755,1.88256,6.49439,5.78283,6.55286V15.623Z" style="fill:#dadddc"/><path d="M13.20948,8.15845l.22223-.98035L10.70582,2.67V3.85883L8.07057,1.38208,5.17774,1.02539,8.031,4.25507l-.67364.37653c.87787.26422,2.16925,1.64715,3.42206,3.08227l-.55432-2.15106Z" style="fill:#cf3c35"/><path d="M14.312,8.634,13.43171,7.1781l-.22223.98035L10.22505,5.56281l.55432,2.15106c1.65967,1.90119,3.25158,3.89435,3.724,3.50409C16.9076,10.57575,15.4239,7.72254,14.312,8.634Z" style="fill:#e8ba36"/><path d="M15.08631,22.33539a1.03692,1.03692,0,0,0,.92682,1.11945V21.21589A1.03694,1.03694,0,0,0,15.08631,22.33539Z" style="fill:#ce692c"/><ellipse cx="12.49273" cy="21.51128" rx="0.88429" ry="1.06815" style="fill:#ce692c"/><path d="M20.55671,25.03565c.01978-.04187.02918-.07092.05042-.11456.60168-1.53528.47583-2.40345-.01984-2.9325l1.92194-2.63525c1.68768,2.41412,2.08612,4.31543.65387,5.48852l.00647.002A6.59887,6.59887,0,0,1,20.55671,25.03565Z" style="fill:#8e252d"/><path d="M23.16957,24.84382c.68786.1463,1.15173.4533,1.24182,1.02832-.1189.81237-2.39392,1.13739-3.99359.6737-.40424-.03851-.32166-.53595.13891-1.51019A6.59887,6.59887,0,0,0,23.16957,24.84382Z" style="fill:#c95f2b"/><path d="M26.09559,24.9607l.72284-1.19342,1.247,1.50714,1.18188-2.08185.94336,2.16858.80237-2.16858.75043,1.744c.42523,4.2569.09521,5.817-.77362,5.45318a13.17014,13.17014,0,0,1-6.30085.35663c-.64392.13037-.95257-.78058-.57458-3.82409A4.25814,4.25814,0,0,1,26.09559,24.9607Z" style="fill:#d6712d"/><path d="M30.19062,25.36115l-.94336-2.16858-1.18188,2.08185-1.247-1.50714-.72284,1.19342a17.97189,17.97189,0,0,0-.37646-5.429L22.76686,15.233l.4953-2.97309L29.781,15.72742c1.264,1.50488,1.92248,4.47614,1.94177,8.99555.00769.07415.01336.141.02063.21362l-.75043-1.744Z" style="fill:#9c2c30"/><path d="M23.86482,14.96479c0,4.975-3.51532,9.00811-7.85169,9.00811V5.95667C20.3495,5.95667,23.86482,9.98975,23.86482,14.96479Z" style="fill:#962931"/><polygon points="17.459 9.422 19.339 8.503 21.01 11.26 19.339 13.934 17.333 12.43 16.013 13.734 16.013 10.851 17.459 9.422" style="fill:#ce692c"/><ellipse cx="18.76935" cy="11.21795" rx="1.227" ry="1.6298" transform="translate(-2.34547 5.53508) rotate(-15.80194)" style="fill:#edeeee"/><ellipse cx="18.8168" cy="11.38558" rx="0.65228" ry="0.86641" transform="translate(-2.38933 5.55433) rotate(-15.80194)" style="fill:#2b3332"/><path d="M17.35761,14.10267l2.33808,1.92193L21.796,13.211c.12231,4.5755-1.88257,6.49439-5.78284,6.55286V15.623Z" style="fill:#e3e5e5"/><path d="M18.81678,8.15845l-.22223-.98035L21.32044,2.67V3.85883L23.9557,1.38208l2.89282-.35669L23.99531,4.25507l.67364.37653c-.87786.26422-2.16925,1.64715-3.422,3.08227l.55432-2.15106Z" style="fill:#c23734"/><path d="M17.71424,8.634l.88031-1.45588.22223.98035,2.98444-2.59564L21.2469,7.71387c-1.65967,1.90119-3.25159,3.89435-3.724,3.50409C15.11866,10.57575,16.60237,7.72254,17.71424,8.634Z" style="fill:#e0b12e"/><path d="M16.94,22.33539a1.03692,1.03692,0,0,1-.92682,1.11945V21.21589A1.03694,1.03694,0,0,1,16.94,22.33539Z" style="fill:#c95f2b"/><ellipse cx="19.53354" cy="21.51128" rx="0.88429" ry="1.06815" style="fill:#c95f2b"/></svg>

<svg xmlns="http://www.w3.org/2000/svg" viewBox="0 0 32 32"><path d="M11.47 25.036c-.02-.042-.03-.071-.05-.115-.603-1.535-.477-2.403.019-2.932l-1.922-2.636c-1.688 2.414-2.086 4.316-.654 5.489l-.006.002a6.599 6.599 0 002.613.192z" fill="#962931"/><path d="M8.857 24.844c-.688.146-1.152.453-1.242 1.028.119.813 2.394 1.138 3.993.674.405-.039.322-.536-.138-1.51a6.599 6.599 0 01-2.613-.192z" fill="#ce692c"/><path d="M5.93 24.96l-.722-1.193-1.247 1.507-1.182-2.081-.943 2.168-.803-2.168-.75 1.744c-.425 4.256-.095 5.817.773 5.453a13.17 13.17 0 006.301.356c.644.13.953-.78.575-3.824a4.258 4.258 0 00-2.001-1.961z" fill="#dd7731"/><path d="M1.836 25.361l.943-2.168 1.182 2.081 1.247-1.507.723 1.194a17.971 17.971 0 01.376-5.43l2.952-4.298-.495-2.973-6.519 3.467C.981 17.232.323 20.204.303 24.723l-.02.214.75-1.744z" fill="#a92f31"/><path d="M8.161 14.965c0 4.975 3.516 9.008 7.852 9.008V5.957c-4.336 0-7.852 4.033-7.852 9.008z" fill="#9c2c30"/><path fill="#d6712d" d="M14.567 9.422l-1.879-.919-1.672 2.757 1.672 2.674 2.005-1.504 1.32 1.304v-2.883l-1.446-1.429z"/><ellipse cx="13.257" cy="11.218" rx="1.63" ry="1.227" transform="rotate(-74.198 13.257 11.218)" fill="#f7f7f7"/><ellipse cx="13.209" cy="11.386" rx=".866" ry=".652" transform="rotate(-74.198 13.21 11.386)" fill="#373f3f"/><path d="M14.669 14.103l-2.338 1.922-2.1-2.814c-.123 4.575 1.882 6.494 5.782 6.553v-4.141z" fill="#dadddc"/><path d="M13.21 8.158l.222-.98-2.726-4.508v1.189L8.07 1.382l-2.893-.357 2.853 3.23-.674.377c.878.264 2.17 1.647 3.422 3.082l-.554-2.151z" fill="#cf3c35"/><path d="M14.312 8.634l-.88-1.456-.223.98-2.984-2.595.554 2.15c1.66 1.902 3.252 3.895 3.724 3.505 2.405-.642.92-3.495-.191-2.584z" fill="#e8ba36"/><path d="M15.086 22.335a1.037 1.037 0 00.927 1.12v-2.24a1.037 1.037 0 00-.927 1.12z" fill="#ce692c"/><ellipse cx="12.493" cy="21.511" rx=".884" ry="1.068" fill="#ce692c"/><path d="M20.557 25.036c.02-.042.029-.071.05-.115.602-1.535.476-2.403-.02-2.932l1.922-2.636c1.688 2.414 2.086 4.316.654 5.489l.007.002a6.599 6.599 0 01-2.613.192z" fill="#8e252d"/><path d="M23.17 24.844c.687.146 1.151.453 1.241 1.028-.119.813-2.394 1.138-3.993.674-.404-.039-.322-.536.139-1.51a6.599 6.599 0 002.613-.192z" fill="#c95f2b"/><path d="M26.096 24.96l.722-1.193 1.247 1.507 1.182-2.081.944 2.168.802-2.168.75 1.744c.426 4.256.096 5.817-.773 5.453a13.17 13.17 0 01-6.301.356c-.644.13-.953-.78-.575-3.824a4.258 4.258 0 012.002-1.961z" fill="#d6712d"/><path d="M30.19 25.361l-.943-2.168-1.182 2.081-1.247-1.507-.722 1.194a17.972 17.972 0 00-.377-5.43l-2.952-4.298.495-2.973 6.519 3.467c1.264 1.505 1.922 4.477 1.942 8.996l.02.214-.75-1.744z" fill="#9c2c30"/><path d="M23.865 14.965c0 4.975-3.515 9.008-7.852 9.008V5.957c4.336 0 7.852 4.033 7.852 9.008z" fill="#962931"/><path fill="#ce692c" d="M17.459 9.422l1.88-.919 1.671 2.757-1.671 2.674-2.006-1.504-1.32 1.304v-2.883l1.446-1.429z"/><ellipse cx="18.769" cy="11.218" rx="1.227" ry="1.63" transform="rotate(-15.802 18.77 11.218)" fill="#edeeee"/><ellipse cx="18.817" cy="11.386" rx=".652" ry=".866" transform="rotate(-15.802 18.817 11.386)" fill="#2b3332"/><path d="M17.358 14.103l2.338 1.922 2.1-2.814c.122 4.575-1.883 6.494-5.783 6.553v-4.141z" fill="#e3e5e5"/><path d="M18.817 8.158l-.222-.98L21.32 2.67v1.189l2.636-2.477 2.893-.357-2.854 3.23.674.377c-.878.264-2.17 1.647-3.422 3.082l.554-2.151z" fill="#c23734"/><path d="M17.714 8.634l.88-1.456.223.98L21.8 5.563l-.554 2.15c-1.66 1.902-3.252 3.895-3.724 3.505-2.404-.642-.92-3.495.191-2.584z" fill="#e0b12e"/><path d="M16.94 22.335a1.037 1.037 0 01-.927 1.12v-2.24a1.037 1.037 0 01.927 1.12z" fill="#c95f2b"/><ellipse cx="19.534" cy="21.511" rx=".884" ry="1.068" fill="#c95f2b"/></svg>
